X: 1
P: Pinafore 4
C: from
C: arr. T. Traub 6-14-2005
K: G
L: 1/8
M: 4/4
R: reel
|: dc|"G"B2 G2 "D"A2 c2|"G"Bc d2-"D"d2 dc|"G"B2 G2 "D"A2 c2|"G"Bc d2-"D"d2 > d2|"C"e2 g2 f2 e2|"G"d4-d2 c2|"G"BABc "D"B2 A2|"G"G4 G2 B2||
"G"B2 > c2 B2 c2|"D"A2 > B2 A2 B2|"G"G2 g2 d2 e2|"Am"c2 B2 "D"A4|"G"B2 > c2 B2 c2|"D"A2 > B2 A2 B2|"G"G2 B2 d2 g2|"D"g2 f2 "G"g4||
K: D
"A7"G2 > B2 f2 e2|"D"F2 > A2 e2 d2|"A"E2 > G2 d2 c2| "D"B2 A2 ^G2 A2|"A7"G2 > B2 f2 e2|"D"F2 > A2 e2 d2|"C"e2 f2 g2 a2| "D"b2 a2 g4||
K: G
"G"B2 > c2 B2 c2|"D"A2 > B2 A2 B2|"G"G2 g2 d2 e2|"Am"c2 B2 "D"A4|"G"B2 > c2 B2 c2|"D"A2 > B2 A2 B2|"G"G2 B2 d2 g2|"D"g2 f2 "G"g4||
